X: 1
T: Flowers Of Spring, The
M: 6/8
L: 1/8
R: jig
K: Ador
|:G | ABA ABd | edB G2B | dBB GBB | AB defg |
ABA ABd | edB G2B | dBB GBB | ABA A2 :|
|:e | eaa aga | bab age | ege dBd | ega ged |
eab aga |bab age |e/2f/2ge dBG | ABA A2:||
